lib/flags/s/HN.svg

<svg xmlns="http://www.w3.org/2000/svg" fill="none" viewBox="0 0 16 12"><mask id="HN_svg__a" width="16" height="12" x="0" y="0" mask-type="alpha" maskUnits="userSpaceOnUse"><path fill="#fff" d="M0 0H16V12H0z"/></mask><g mask="url(#HN_svg__a)"><path fill="#F7FCFF" fill-rule="evenodd" d="M0 0V12H16V0H0Z" clip-rule="evenodd"/><mask id="HN_svg__b" width="16" height="12" x="0" y="0" mask-type="alpha" maskUnits="userSpaceOnUse"><path fill="#fff" fill-rule="evenodd" d="M0 0V12H16V0H0Z" clip-rule="evenodd"/></mask><g fill="#4564F9" fill-rule="evenodd" clip-rule="evenodd" mask="url(#HN_svg__b)"><path d="M0 0V4H16V0H0zM0 8V12H16V8H0zM8.40903 6.56592 7.82125 6.87493 7.93351 6.22043 7.45798 5.70916H8.11514L8.40903 5.06592 8.70293 5.70916H9.36009L8.88456 6.22043 8.99682 6.87493 8.40903 6.56592zM5.40903 5.56592 4.82125 5.87493 4.93351 5.22043 4.45798 4.70916H5.11514L5.40903 4.06592 5.70293 4.70916H6.36009L5.88456 5.22043 5.99682 5.87493 5.40903 5.56592zM5.40903 7.56592 4.82125 7.87493 4.93351 7.22043 4.45798 6.70916H5.11514L5.40903 6.06592 5.70293 6.70916H6.36009L5.88456 7.22043 5.99682 7.87493 5.40903 7.56592zM11.409 5.56592 10.8212 5.87493 10.9335 5.22043 10.458 4.70916H11.1151L11.409 4.06592 11.7029 4.70916H12.3601L11.8846 5.22043 11.9968 5.87493 11.409 5.56592zM11.409 7.56592 10.8212 7.87493 10.9335 7.22043 10.458 6.70916H11.1151L11.409 6.06592 11.7029 6.70916H12.3601L11.8846 7.22043 11.9968 7.87493 11.409 7.56592z"/></g></g></svg>

<svg xmlns="http://www.w3.org/2000/svg" fill="none" viewBox="0 0 16 12"><mask id="HN_svg__a" width="16" height="12" x="0" y="0" maskUnits="userSpaceOnUse"><path fill="#fff" d="M0 0h16v12H0z"/></mask><g mask="url(#HN_svg__a)"><path fill="#F7FCFF" fill-rule="evenodd" d="M0 0v12h16V0H0z" clip-rule="evenodd"/><mask id="HN_svg__b" width="16" height="12" x="0" y="0" maskUnits="userSpaceOnUse"><path fill="#fff" fill-rule="evenodd" d="M0 0v12h16V0H0z" clip-rule="evenodd"/></mask><g fill="#4564F9" fill-rule="evenodd" clip-rule="evenodd" mask="url(#HN_svg__b)"><path d="M0 0v4h16V0H0zm0 8v4h16V8H0zm8.41-1.434l-.589.309.113-.655-.476-.51h.657l.294-.644.294.643h.657l-.475.511.112.655-.588-.31zm-3-1l-.589.309.113-.655-.476-.51h.657l.294-.644.294.643h.657l-.475.511.112.655-.588-.31zm0 2l-.589.309.113-.655-.476-.51h.657l.294-.644.294.643h.657l-.475.511.112.655-.588-.31zm6-2l-.589.309.113-.655-.476-.51h.657l.294-.644.294.643h.657l-.475.511.112.655-.588-.31zm0 2l-.589.309.113-.655-.476-.51h.657l.294-.644.294.643h.657l-.475.511.112.655-.588-.31z"/></g></g></svg>
